X: 115
T:Go Mauve
M:4/4
L:1/8
C:Ian Luff
R:Schottische
D:Blowzabella - Vanilla
Z:Steve Mansfield
K:Em
EGBG E2GB | dd^cB F4 | AGFE D2FG | FEDE FGE2 | EGBG E2GB | dd^cB F4 |
AGFE DEFG | E2 E6 :: E2E2 EFGE | F2F2 FGAF | G2G2 GBAG |
A2 A2- AGFG | E2E2 EFGE | F2F2 FGAF | G2G2 GBAG |1 A2 A2- AGFG :|2 A2 A6 ||
<end>
<start>
